file/ctv.svg

<svg clip-rule="evenodd" fill-rule="evenodd" stroke-linejoin="round" stroke-miterlimit="1.41421" viewBox="0 0 560 400" xmlns="http://www.w3.org/2000/svg" xmlns:xlink="http://www.w3.org/1999/xlink"><radialGradient id="a" cx="0" cy="0" gradientTransform="matrix(43.6712 0 0 -43.6712 68.8944 62.4089)" gradientUnits="userSpaceOnUse" r="1"><stop offset="0" stop-color="#750404"/><stop offset="1" stop-color="#f00"/></radialGradient><radialGradient id="b" cx="0" cy="0" gradientTransform="matrix(16.4027 0 0 -16.4027 36.039 28.7644)" gradientUnits="userSpaceOnUse" r="1"><stop offset="0" stop-color="#fff"/><stop offset="1" stop-color="#fff" stop-opacity="0"/></radialGradient><g fill-rule="nonzero" transform="matrix(9.6486127012 0 0 -9.6486127012 -8528.0807942 6882.7272148)"><path d="m914.524 699.462c-.237-.717-.907-1.234-1.696-1.234-.989 0-1.788.809-1.788 1.806s.759 1.765 1.746 1.765c.814 0 1.529-.522 1.754-1.264h-.493c-.203.482-.696.81-1.251.81-.727 0-1.288-.566-1.288-1.302 0-.735.59-1.332 1.319-1.332.521 0 .973.307 1.187.751h.509z" fill="#fff"/><path d="m906.752 687.49v.383h.131c.333 0 .558.064.668.192.112.13.169.396.169.792v5.422c0 .415-.053.686-.158.806-.103.118-.332.178-.679.178h-.131v.382h5.408l.165-1.52h-.471l-.02.135c-.066.428-.193.692-.377.785-.189.095-.702.143-1.524.143h-1.083v-3.122h1.171c.54 0 .889.046 1.037.135.141.087.212.293.212.613v.121h.481v-2.121h-.481v.111c0 .288-.06.495-.181.616-.066.065-.305.143-1.068.143h-1.171v-2.862c0-.327.136-.548.416-.677.285-.131.8-.197 1.529-.197h.219c.311 0 .542.076.687.226.148.151.256.427.323.818l.021.124h.47l-.152-1.626z"/><path d="m921.097 687.49h-.388l-2.353 6.323-2.004-6.323h-.398l-2.063 6.746c-.117.378-.238.648-.361.801-.118.15-.264.226-.435.226h-.109v.382h2.636v-.382h-.135c-.241 0-.401-.029-.478-.087-.072-.055-.109-.172-.109-.346 0-.171.034-.373.101-.6l1.471-4.811 1.958 6.226h.377l2.297-6.259 1.455 4.839c.08.28.12.509.12.681 0 .202-.196.32-.583.352l-.128.007v.38h2.031v-.382h-.119c-.168 0-.303-.071-.412-.217-.112-.151-.229-.428-.347-.823z"/><path d="m926.252 687.293c-.722 0-1.418.109-2.069.323l-.021.008-.115 1.838h.468l.021-.111c.101-.533.315-.949.633-1.236.32-.286.733-.432 1.226-.432.444 0 .83.153 1.146.453.317.3.478.668.478 1.091 0 .534-.418 1.09-1.241 1.654l-.793.548c-.77.532-1.282.951-1.522 1.246-.243.299-.366.667-.366 1.091 0 .63.257 1.144.765 1.528.506.383 1.181.577 2.007.577.642 0 1.305-.114 1.97-.34l.02-.007.181-1.577h-.467l-.034.107c-.271.947-.899 1.427-1.863 1.427-.431 0-.793-.132-1.075-.39-.281-.257-.424-.588-.424-.984 0-.5.357-.999 1.062-1.483l1.145-.787c.717-.492 1.195-.89 1.42-1.183.227-.295.343-.67.343-1.114 0-.684-.266-1.236-.788-1.64-.522-.403-1.231-.607-2.107-.607"/><path d="m899.037 688.127c-.144.162-.216.505-.216 1.029v6.318l6.501-7.982h.268l.008 8.509c0 .524.072.866.219 1.029.147.162.435.243.899.243h.126v.393h-3.266v-.393h.104c.477 0 .788-.081.936-.243.147-.163.22-.505.22-1.029v-6.057l-6.215 7.722h-1.996v-.393h.125c.332 0 .694-.239 1.09-.718l.175-.217v-7.182c0-.524-.072-.867-.216-1.029-.143-.161-.45-.242-.919-.242h-.084v-.393h3.285v.393h-.124c-.47 0-.776.081-.92.242"/><path d="m900.591 682.246c-.609 0-1.061.158-1.344.47-.282.31-.425.766-.425 1.353 0 .307.04.577.119.804.079.229.198.422.352.573.155.151.346.265.569.338.22.072.473.109.751.109.268 0 .509-.04.718-.117.21-.078.398-.195.561-.347l.053-.05-.434-.433-.05.045c-.109.101-.236.18-.375.234-.139.055-.3.083-.477.083-.793 0-1.178-.407-1.178-1.243 0-.412.094-.726.28-.934.184-.205.488-.309.902-.309.118 0 .222.008.311.026.087.017.165.041.233.071.067.03.128.065.18.103.053.039.104.082.15.128l.049.049.431-.414-.05-.05c-.064-.064-.136-.126-.215-.184-.08-.059-.174-.112-.28-.157s-.227-.081-.363-.108c-.135-.026-.292-.04-.468-.04"/><path d="m906.217 682.296h-.604v1.538h-1.774v-1.538h-.604v3.542h.604v-1.405h1.774v1.405h.604z"/><path d="m908.588 683.579h1.17l-.585 1.467zm2.299-1.283h-.628l-.28.716h-1.603l-.28-.716h-.615l1.419 3.565h.568z"/><path d="m915.154 682.296h-.532l-1.878 2.578v-2.578h-.59v3.542h.61l1.8-2.476v2.476h.59z"/><path d="m919.829 682.296h-.533l-1.877 2.578v-2.578h-.59v3.542h.611l1.799-2.476v2.476h.59z"/><path d="m923.989 682.296h-2.486v3.542h2.468v-.585h-1.864v-.838h1.817v-.581h-1.817v-.971h1.882z"/><path d="m928.019 682.296h-2.376v3.542h.604v-2.975h1.772z"/></g><g transform="matrix(.76338355214 0 0 .76338355214 243.10328372 93.84580076)"><path d="m48.021 81.537c20.294 0 36.74-16.442 36.74-36.74 0-20.285-16.446-36.734-36.74-36.734-20.282 0-36.734 16.449-36.734 36.734 0 20.297 16.452 36.74 36.734 36.74" fill="url(#a)" fill-rule="nonzero"/><path d="m87.527 10.802h67.361v69.275h-67.361z" fill="#039"/><g fill-rule="nonzero"><path d="m238.713 10.807h-82.153l41.064 70.049z" fill="#393"/><path d="m69.523 52.201c-3.02 9.139-11.562 15.726-21.628 15.726-12.583 0-22.788-10.31-22.788-23.02 0-12.711 9.681-22.492 22.271-22.492 10.382 0 19.49 6.646 22.369 16.104h-6.295c-2.59-6.138-8.863-10.33-15.938-10.33-9.284 0-16.427 7.223-16.427 16.597 0 9.386 7.53 16.987 16.809 16.987 6.661 0 12.41-3.907 15.135-9.571z" fill="#fff"/><path d="m99.325 30.955v-6.213h43.915v6.213h-18.646v35.072h-6.216v-35.072z" fill="#fff"/><path d="m180.385 23.546h-7.224l24.442 41.34 24.444-41.34h-7.228l-17.216 28.65z" fill="#fff"/></g><circle cx="36.039" cy="28.764" fill="url(#b)" r="14.997"/></g></svg>

<?xml version="1.0" encoding="UTF-8" standalone="no"?>
<!DOCTYPE svg PUBLIC "-//W3C//DTD SVG 1.1//EN" "http://www.w3.org/Graphics/SVG/1.1/DTD/svg11.dtd">
<svg width="100%" height="100%" viewBox="0 0 560 400" version="1.1" xmlns="http://www.w3.org/2000/svg" xmlns:xlink="http://www.w3.org/1999/xlink" xml:space="preserve" xmlns:serif="http://www.serif.com/" style="fill-rule:evenodd;clip-rule:evenodd;stroke-linejoin:round;stroke-miterlimit:1.41421;">
    <g transform="matrix(1.16798,0,0,1.16798,-356.554,-502.714)">
        <g id="g27826" transform="matrix(8.26094,0,0,-8.26094,-6996.29,6323.26)">
            <path id="path27828" d="M914.524,699.462C914.287,698.745 913.617,698.228 912.828,698.228C911.839,698.228 911.04,699.037 911.04,700.034C911.04,701.031 911.799,701.799 912.786,701.799C913.6,701.799 914.315,701.277 914.54,700.535L914.047,700.535C913.844,701.017 913.351,701.345 912.796,701.345C912.069,701.345 911.508,700.779 911.508,700.043C911.508,699.308 912.098,698.711 912.827,698.711C913.348,698.711 913.8,699.018 914.014,699.462L914.523,699.462Z" style="fill:white;fill-rule:nonzero;"/>
            <path id="path27830" d="M906.752,687.49L906.752,687.873L906.883,687.873C907.216,687.873 907.441,687.937 907.551,688.065C907.663,688.195 907.72,688.461 907.72,688.857L907.72,694.279C907.72,694.694 907.667,694.965 907.562,695.085C907.459,695.203 907.23,695.263 906.883,695.263L906.752,695.263L906.752,695.645L912.16,695.645L912.325,694.125L911.854,694.125L911.834,694.26C911.768,694.688 911.641,694.952 911.457,695.045C911.268,695.14 910.755,695.188 909.933,695.188L908.85,695.188L908.85,692.066L910.021,692.066C910.561,692.066 910.91,692.112 911.058,692.201C911.199,692.288 911.27,692.494 911.27,692.814L911.27,692.935L911.751,692.935L911.751,690.814L911.27,690.814L911.27,690.925C911.27,691.213 911.21,691.42 911.089,691.541C911.023,691.606 910.784,691.684 910.021,691.684L908.85,691.684L908.85,688.822C908.85,688.495 908.986,688.274 909.266,688.145C909.551,688.014 910.066,687.948 910.795,687.948L911.014,687.948C911.325,687.948 911.556,688.024 911.701,688.174C911.849,688.325 911.957,688.601 912.024,688.992L912.045,689.116L912.515,689.116L912.363,687.49L906.752,687.49Z" style="fill-rule:nonzero;"/>
            <path id="path27832" d="M921.097,687.49L920.709,687.49L918.356,693.813L916.352,687.49L915.954,687.49L913.891,694.236C913.774,694.614 913.653,694.884 913.53,695.037C913.412,695.187 913.266,695.263 913.095,695.263L912.986,695.263L912.986,695.645L915.622,695.645L915.622,695.263L915.487,695.263C915.246,695.263 915.086,695.234 915.009,695.176C914.937,695.121 914.9,695.004 914.9,694.83C914.9,694.659 914.934,694.457 915.001,694.23L916.472,689.419L918.43,695.645L918.807,695.645L921.104,689.386L922.559,694.225C922.639,694.505 922.679,694.734 922.679,694.906C922.679,695.108 922.483,695.226 922.096,695.258L921.968,695.265L921.968,695.645L923.999,695.645L923.999,695.263L923.88,695.263C923.712,695.263 923.577,695.192 923.468,695.046C923.356,694.895 923.239,694.618 923.121,694.223L921.097,687.49Z" style="fill-rule:nonzero;"/>
            <path id="path27834" d="M926.252,687.293C925.53,687.293 924.834,687.402 924.183,687.616L924.162,687.624L924.047,689.462L924.515,689.462L924.536,689.351C924.637,688.818 924.851,688.402 925.169,688.115C925.489,687.829 925.902,687.683 926.395,687.683C926.839,687.683 927.225,687.836 927.541,688.136C927.858,688.436 928.019,688.804 928.019,689.227C928.019,689.761 927.601,690.317 926.778,690.881L925.985,691.429C925.215,691.961 924.703,692.38 924.463,692.675C924.22,692.974 924.097,693.342 924.097,693.766C924.097,694.396 924.354,694.91 924.862,695.294C925.368,695.677 926.043,695.871 926.869,695.871C927.511,695.871 928.174,695.757 928.839,695.531L928.859,695.524L929.04,693.947L928.573,693.947L928.539,694.054C928.268,695.001 927.64,695.481 926.676,695.481C926.245,695.481 925.883,695.349 925.601,695.091C925.32,694.834 925.177,694.503 925.177,694.107C925.177,693.607 925.534,693.108 926.239,692.624L927.384,691.837C928.101,691.345 928.579,690.947 928.804,690.654C929.031,690.359 929.147,689.984 929.147,689.54C929.147,688.856 928.881,688.304 928.359,687.9C927.837,687.497 927.128,687.293 926.252,687.293" style="fill-rule:nonzero;"/>
            <path id="path27836" d="M899.037,688.127C898.893,688.289 898.821,688.632 898.821,689.156L898.821,695.474L905.322,687.492L905.59,687.492L905.598,696.001C905.598,696.525 905.67,696.867 905.817,697.03C905.964,697.192 906.252,697.273 906.716,697.273L906.842,697.273L906.842,697.666L903.576,697.666L903.576,697.273L903.68,697.273C904.157,697.273 904.468,697.192 904.616,697.03C904.763,696.867 904.836,696.525 904.836,696.001L904.836,689.944L898.621,697.666L896.625,697.666L896.625,697.273L896.75,697.273C897.082,697.273 897.444,697.034 897.84,696.555L898.015,696.338L898.015,689.156C898.015,688.632 897.943,688.289 897.799,688.127C897.656,687.966 897.349,687.885 896.88,687.885L896.796,687.885L896.796,687.492L900.081,687.492L900.081,687.885L899.957,687.885C899.487,687.885 899.181,687.966 899.037,688.127" style="fill-rule:nonzero;"/>
            <path id="path27838" d="M900.591,682.246C899.982,682.246 899.53,682.404 899.247,682.716C898.965,683.026 898.822,683.482 898.822,684.069C898.822,684.376 898.862,684.646 898.941,684.873C899.02,685.102 899.139,685.295 899.293,685.446C899.448,685.597 899.639,685.711 899.862,685.784C900.082,685.856 900.335,685.893 900.613,685.893C900.881,685.893 901.122,685.853 901.331,685.776C901.541,685.698 901.729,685.581 901.892,685.429L901.945,685.379L901.511,684.946L901.461,684.991C901.352,685.092 901.225,685.171 901.086,685.225C900.947,685.28 900.786,685.308 900.609,685.308C899.816,685.308 899.431,684.901 899.431,684.065C899.431,683.653 899.525,683.339 899.711,683.131C899.895,682.926 900.199,682.822 900.613,682.822C900.731,682.822 900.835,682.83 900.924,682.848C901.011,682.865 901.089,682.889 901.157,682.919C901.224,682.949 901.285,682.984 901.337,683.022C901.39,683.061 901.441,683.104 901.487,683.15L901.536,683.199L901.967,682.785L901.917,682.735C901.853,682.671 901.781,682.609 901.702,682.551C901.622,682.492 901.528,682.439 901.422,682.394C901.316,682.349 901.195,682.313 901.059,682.286C900.924,682.26 900.767,682.246 900.591,682.246" style="fill-rule:nonzero;"/>
            <path id="path27840" d="M906.217,682.296L905.613,682.296L905.613,683.834L903.839,683.834L903.839,682.296L903.235,682.296L903.235,685.838L903.839,685.838L903.839,684.433L905.613,684.433L905.613,685.838L906.217,685.838L906.217,682.296Z" style="fill-rule:nonzero;"/>
            <path id="path27842" d="M908.588,683.579L909.758,683.579L909.173,685.046L908.588,683.579ZM910.887,682.296L910.259,682.296L909.979,683.012L908.376,683.012L908.096,682.296L907.481,682.296L908.9,685.861L909.468,685.861L910.887,682.296Z" style="fill-rule:nonzero;"/>
            <path id="path27844" d="M915.154,682.296L914.622,682.296L912.744,684.874L912.744,682.296L912.154,682.296L912.154,685.838L912.764,685.838L914.564,683.362L914.564,685.838L915.154,685.838L915.154,682.296Z" style="fill-rule:nonzero;"/>
            <path id="path27846" d="M919.829,682.296L919.296,682.296L917.419,684.874L917.419,682.296L916.829,682.296L916.829,685.838L917.44,685.838L919.239,683.362L919.239,685.838L919.829,685.838L919.829,682.296Z" style="fill-rule:nonzero;"/>
            <path id="path27848" d="M923.989,682.296L921.503,682.296L921.503,685.838L923.971,685.838L923.971,685.253L922.107,685.253L922.107,684.415L923.924,684.415L923.924,683.834L922.107,683.834L922.107,682.863L923.989,682.863L923.989,682.296Z" style="fill-rule:nonzero;"/>
            <path id="path27850" d="M928.019,682.296L925.643,682.296L925.643,685.838L926.247,685.838L926.247,682.863L928.019,682.863L928.019,682.296Z" style="fill-rule:nonzero;"/>
        </g>
        <g id="g3" transform="matrix(0.653593,0,0,0.653593,513.414,510.762)">
            <path id="path10" d="M48.021,81.537C68.315,81.537 84.761,65.095 84.761,44.797C84.761,24.512 68.315,8.063 48.021,8.063C27.739,8.063 11.287,24.512 11.287,44.797C11.287,65.094 27.739,81.537 48.021,81.537" style="fill:url(#_Radial1);fill-rule:nonzero;"/>
            <rect id="rect12" x="87.527" y="10.802" width="67.361" height="69.275" style="fill:rgb(0,51,153);"/>
            <path id="polygon14" d="M238.713,10.807L156.56,10.807L197.624,80.856L238.713,10.807Z" style="fill:rgb(51,153,51);fill-rule:nonzero;"/>
            <path id="path16" d="M69.523,52.201C66.503,61.34 57.961,67.927 47.895,67.927C35.312,67.927 25.107,57.617 25.107,44.907C25.107,32.196 34.788,22.415 47.378,22.415C57.76,22.415 66.868,29.061 69.747,38.519L63.452,38.519C60.862,32.381 54.589,28.189 47.514,28.189C38.23,28.189 31.087,35.412 31.087,44.786C31.087,54.172 38.617,61.773 47.896,61.773C54.557,61.773 60.306,57.866 63.031,52.202L69.523,52.201Z" style="fill:white;fill-rule:nonzero;"/>
            <path id="polygon18" d="M99.325,30.955L99.325,24.742L143.24,24.742L143.24,30.955L124.594,30.955L124.594,66.027L118.378,66.027L118.378,30.955L99.325,30.955Z" style="fill:white;fill-rule:nonzero;"/>
            <path id="polygon20" d="M180.385,23.546L173.161,23.546L197.603,64.886L222.047,23.546L214.819,23.546L197.603,52.196L180.385,23.546Z" style="fill:white;fill-rule:nonzero;"/>
            <circle id="circle27" cx="36.039" cy="28.764" r="14.997" style="fill:url(#_Radial2);"/>
        </g>
    </g>
    <defs>
        <radialGradient id="_Radial1" cx="0" cy="0" r="1" gradientUnits="userSpaceOnUse" gradientTransform="matrix(43.6712,0,0,-43.6712,68.8944,62.4089)"><stop offset="0" style="stop-color:rgb(117,4,4);stop-opacity:1"/><stop offset="1" style="stop-color:rgb(255,0,0);stop-opacity:1"/></radialGradient>
        <radialGradient id="_Radial2" cx="0" cy="0" r="1" gradientUnits="userSpaceOnUse" gradientTransform="matrix(16.4027,0,0,-16.4027,36.039,28.7644)"><stop offset="0" style="stop-color:white;stop-opacity:1"/><stop offset="1" style="stop-color:white;stop-opacity:0"/></radialGradient>
    </defs>
</svg>
